X:1
T:Title
%%score [ 1 2 3 4 ]
L:1/8
Q:1/4=108
M:3/4
K:F
V:1 treble nm="Midi_1"
V:2 treble nm="Midi_1"
V:3 treble-8 nm="Midi_1"
V:4 bass nm="Midi_1"
V:1
"^Hüt du dich!" F2 | F3 F F2 | E4 F2 | F4 F2 | E2 G3 F | F4"^Caspar Othmayr (1515-1553)" E2 | %6
w: Ich|weiß mir ein|Maid- lein|hübsch und|fein, hüt *|* du|
w: Sie|hat ein licht|gold- far-|be- nes|Haar, hüt *|* du|
w: Sie|hat * zwei|Brüst- lein,|die sind|weiß, hüt *|* du|
w: Sie|gibt dir ein|Kränz- lein|wohl- ge-|macht, hüt *|* du|
 F4 F2 | A3 A B2 | c4 c2 | G4 A2 | B4 A2 | A3 A F2 | (c2 G2) A2 | B4 A2 | G4 B2 | c4 B2 | A4 c2 | %17
w: dich! Ich|weiß mir ein|Maid- lein|hübsch und|fein, ich|weiß mir ein|Maid * lein|hübsch und|fein, sie|kann wohl|falsch und|
w: dich! Sie|hat ein licht|gold- far-|be- nes|Haar, sie|hat ein licht|gold * far-|be- nes|Haar, und|was sie|red't, das|
w: dich! Sie|hat * zwei|Brüst- lein,|die sind|weiß, sie|hat zwei Brüst-|lein, * die|sind weiß,|weiß, sie|legt's her-|für mit|
w: dich! Sie|gibt dir ein|Kränz- lein|wohl- ge-|macht, sie|gibt dir ein|Kränz * lein|wohl- ge-|macht. Für|ei- nen|Narr'n wirst|
 B4 A2 | G4 B2 | A4 B2 | c4 c2 | G4 A2 | B6 | z6 | A4 G2 | F4 z2 | A4 G2 | F6 | A4 B2 | %29
w: freund- lich|sein, sie|kann wohl|falsch und|freund- lich|sein.||Hüt du|dich!|Hüt du|dich!|Hüt du|
w: ist nicht|wahr und|was sie|red't, das|ist nicht|wahr.|||||||
w: al- lem|Fleiß, sie|legt's her-|für mit|al- lem|Fleiß.|||||||
w: du ge-|acht, für|ei- nen|Narr'n wirst|du ge-|acht,|||||||
"^Hüt du dich! - Seite 2" c4 c2 | G4 A2 | B4 B2 | A2 G4 | F6 | (A3 B) c2 | B4 A2 | (G2 BAGF) | %37
w: dich, ver-|trau ihr|nicht: sie|nar- ret|dich!|Hüt * du|dich, ver-|trau * * * *|
w: ||||||||
w: ||||||||
w: ||||||||
 (F2 ED) E2 | F4 B2 | A2 G4 | F4 F2 | (F2 ED) E2 | F6- | F6 | F6 |] %45
w: * * * ihr|nicht: sie|nar- ret|dich, sie|nar * * ret|dich!|||
w: ||||||||
w: ||||||||
w: ||||||||
V:2
 C2 | C2 B,2 A,2 | C4 C2 | D4 C2 | C6 | C4 C2 | A,4 F2 | F3 F D2 | C4 F2 | E4 F2 | G4 C2 | %11
w: |||||||||||
 C3 C D2 | E4 F2 | G4 F2 | D4 D2 | F4 F2 | F4 E2 | G4 F2 | D4 G2 | F4 D2 | C4 C2 | E4 F2 | G6 | %23
w: ||||||||||||
 z6 | F4 E2 | (C3 D E2) | F4 C2 | D6 | F4 D2 | C4 C2 | E4 F2 | G4 D2 | (F2 ED) E2 | F2 C2 D2 | %34
w: |Hüt du|dich! * *|Hüt du|dich!|Hüt du|dich, ver-|trau ihr|nicht: sie|nar * * ret|dich! Hüt du|
 F4 E2 | G4 F2 | D4 E2 | C4 C2 | C4 D2 | (F2 ED) E2 | F2 (D3 C) | C4 C2 | C4 F2 | D4 D2 | C6 |] %45
w: dich, ver-|trau ihr|nicht, sie|nar- ret|dich, sie|nar * * ret|dich, sie *|nar- ret|dich, sie|nar- ret|dich!|
V:3
 F2 | F3 F F2 | G4 A2 | B4 A2 | G6 | A4 G2 | F6 | z6 | z6 | z6 | z2 z2 F2 | A3 A B2 | c4 c2 | %13
w: Ich|weiß mir ein|Maid- lein|hübsch und|fein,|hüt du|dich!||||Ich|weiß mir ein|Maid- lein|
w: Sie|hat ein licht|gold- far-|be- nes|Haar,|hüt du|dich!||||Sie|hat ein licht|gold- far-|
w: Sie|hat * zwei|Brüst- lein,|die sind|weiß,|hüt du|dich!||||Sie|hat * zwei|Brüst- lein,|
w: Sie|gibt dir ein|Kränz- lein|wohl- ge-|macht,|hüt du|dich!||||Sie|gibt dir ein|Kränz- lein|
 G4 A2 | B4 B2 | A4 B2 | c4 c2 | G4 A2 | B6 | z6 | z6 | z6 | z6 | A4 G2 | F4 z2 | A4 G2 | F4 z2 | %27
w: hübsch und|sein, sie|kann wohl|falsch und|freund- lich|sein.|||||Hüt du|dich!|Hüt du|dich!|
w: be- nes|Haar und|was sie|red't, das|ist nicht|wahr.|||||||||
w: die sind|weiß, sie|legt's her-|für mit|al- lem|Fleiß.|||||||||
w: wohl- ge-|macht. Für|ei- nen|Narr'n wirst|du ge-|acht.|||||||||
 z6 | z6 | z6 | z6 | z6 | z6 | A4 B2 | c4 c2 | G4 A2 | B4 B2 | A2 G4 | F4 z2 | z6 | z2 z2 B2 | %41
w: ||||||Hüt du|dich, ver-|trau ihr|nicht, sie|nar- ret|dich,||sie|
w: ||||||||||||||
w: ||||||||||||||
w: ||||||||||||||
 A2 G4 | F6- | F6 | F6 |] %45
w: nar- ret|dich!|||
w: ||||
w: ||||
w: ||||
V:4
 F,2 | F,2 B,,2 D,2 | C,4 F,2 | B,,4 F,2 | C,6 | F,4 C,2 | F,6 | z6 | z6 | z6 | z2 z2 F,2 | %11
w: |||||||||||
 F,3 E, D,2 | C,4 F,2 | _E,4 F,2 | G,4 G,2 | F,4 B,,2 | F,4 C,2 | _E,4 F,2 | G,6 | z6 | z6 | z6 | %22
w: |||||||||||
 z6 | F,4 B,2 | A,4 z2 | F,4 C,2 | F,4 z2 | B,4 B,2 | F,4 G,2 | (A,3 G,) A,B, | C4 z2 | z6 | z6 | %33
w: |Hüt du|dich!|Hüt du|dich!|Hüt du|dich, ver-|trau * ihr *|nicht!|||
 F,4 B,,2 | F,4 C,2 | _E,4 F,2 | G,4 E,2 | F,2 C,4 | F,4 z2 | z6 | %40
w: Hüt du|dich, ver-|trau ihr|nicht, sie|nar- ret|dich,||
 z2"^© 2011 by CPDL. This edition can be fully distributed, duplicated, performed, and recorded. Edited by Juliane Claudi" z2 B,,2 | %41
w: sie|
 F,2 C,4 | F,4 F,2 | B,,4 B,,2 | F,6 |] %45
w: nar- ret|dich, sie|nar- ret|dich!|

